X:455
T: Fan qiang
N: C1490
O: China, Yunnan, Yaoan
S: II, 71]
R: Wuge, Huadeng]
M: 2/4
L: 1/32
K: C
G2E2D2E2G4G4 | A2c2A2G2E8
D4G2A2E6D2 | C4C4A,2C2A,2E2 | D2C2D8E4
G,2G,4A,2C2A,2C4 | D3CG,2A,2C8
C2A,4E2D2C2A,4 | G,4G,4E,2G,2A,2C2 | G,16
D4D2E2G8 | A2c2A2G2E8 | D6E2C8 | B,6A,2
G,4A,4 | C4A,4E6D2 | E4E4D2E2G,2A,2 | C12z4
B,6A,2G,4A,4 | C4C4A,3CA,2E2 | D2C2D8E4
G,2G,4A,2A,2C2A,2C2 | C2A,2G,2A,2C8
G2E2E2G2D2C2A,4 | G,4G,4E,2G,2A,2C2 | G,16

